X:1
T:I Praise Your Justice, LORD
T:Tune: Louis Bourgeois, 1551; harm. Claude Goudimel, 1564, alt. Text under copyright; for copyrighted material see Psalter Hymnal 101
T:11 11 10 4 GENEVAN 101 www.hymnary.org/text/i_praise_your_justice_lord 
T:I Praise Your Justice, LORD
T:This music is in the public domain. You may freely use this score for personal and congregational worship. If you reproduce the score, please credit Hymnary.org as the source. 
T:This music is in the public domain. You may freely use this score for personal and congregational worship. If you reproduce the score, please credit Hymnary.org as the source. 
Z:This music is in the public domain. You may freely use this score for personal and congregational worship. If you reproduce the score, please credit Hymnary.org as the source.
%%score ( 1 2 ) ( 3 4 )
L:1/8
M:18/4
K:G
V:1 treble nm="SOPRANO ALTO" snm="S. A."
V:2 treble 
V:3 bass nm="TENOR BASS" snm="T. B."
V:4 bass 
V:1
 D4 G4 B4 A2 A2 B2 d2 c2 B2 A4 G8 | G4 F2 E2 D2 D2 G2 G2 A2 B2 c4 B8 |1 %2
 B4 d2 c2 B4 A4 G2 F2 G2 A2 B8 | c4 B4 A4 G8 |] %4
V:2
 A,4 C4 D4 D2 D2 D2 G2 E2 G2 (G2 F2) D8 | D4 D2 C2 B,2 A,2 C2 B,2 D2 D2 E4 ^D8 |1 %2
 =D4 D2 E2 D4 D4 B,2 D2 E2 F2 G8 | E4 G4 (G2 F2) D8 |] %4
V:3
 F,4 E,4 G,4 F,2 A,2 G,2 B,2 C2 D2 D4 B,8 | B,4 B,2 G,2 G,2 F,2 E,2 G,2 F,2 F,2 A,4 F,8 |1 %2
 G,4 G,2 G,2 G,4 F,4 G,2 B,2 B,2 D2 D8 | C4 D4 D4 B,8 |] %4
V:4
 D,4 C,4 G,,4 D,2 F,2 G,2 G,,2 A,,2 B,,2 D,4 G,,8 | %1
 G,,4 B,,2 C,2 G,,2 D,2 C,2 E,2 D,2 B,,2 A,,4 B,,8 |1 G,4 B,,2 C,2 G,4 D,4 E,2 B,,2 E,2 D,2 G,8 | %3
 A,,4 (B,,2 C,2) D,4 G,,8 |] %4

